X:1
T:Flight of the Bumblebee Bass Lead
T:Orignal by Nikolai Rimsky-Korsakov Arrangement by Wade Young
%%score 1 ( 2 3 )
L:1/8
Q:1/4=150
M:2/4
K:C
V:1 bass+8 transpose=-12 nm="Bass Guitar" snm="B. Guit."
V:2 perc nm="Drumset" snm="D. Set"
K:none
I:percmap A A 41 normal
I:percmap ^a a 49 x
I:percmap ^b b 57 x
I:percmap ^c c 37 x
I:percmap ^e e 46 x
I:percmap ^g g 42 x
I:percmap d d 45 normal
I:percmap e e 47 normal
I:percmap f f 48 normal
V:3 perc 
K:none
I:percmap A A 43 normal
I:percmap F F 35 normal
I:percmap ^c c 37 x
I:percmap d d 45 normal
I:percmap e e 47 normal
I:percmap f f 50 normal
V:1
 F z z2 | F z z2 | E/^D/=D/^C/ D/C/=C/B,/ | C/B,/_B,/A,/ ^G,/=G,/^F,/=F,/ | %4
 E,/^D,/=D,/^C,/ D,/C,/=C,/B,,/ |[K:bass] C/B,/_B,/A,/ ^G,/=G,/^F,/=F,/ | %6
 E,/^D,/=D,/^C,/ D,/C,/=C,/B,,/ | E,/^D,/=D,/^C,/ D,/C,/=C,/B,,/ | E,/^D,/=D,/^C,/ =C,/F,/E,/^D,/ | %9
 E,/^D,/=D,/^C,/ =C,/^C,/D,/^D,/ | E,/^D,/=D,/^C,/ =C,/F,/E,/^D,/ | %11
 E,/^D,/=D,/^C,/ =C,/^C,/D,/^D,/ | E,/^D,/=D,/^C,/ D,/C,/=C,/B,,/ | C,/^C,/D,/^D,/ E,/F,/E,/D,/ | %14
 E,/^D,/=D,/^C,/ D,/C,/=C,/B,,/ | C,/^C,/D,/^D,/ E,/^F,/G,/^G,/ | A,/^G,/=G,/^F,/ =F,/_B,/A,/^G,/ | %17
 A,/^G,/=G,/^F,/ ^E,/=F,/G,/^G,/ | A,/^G,/=G,/^F,/ =F,/_B,/A,/^G,/ | %19
 A,/^G,/=G,/^F,/ ^E,/=F,/G,/^G,/ | A,/^G,/=G,/^F,/ G,/F,/=F,/E,/ | F,/^F,/G,/^G,/ A,/_B,/A,/G,/ | %22
 A,/^G,/=G,/^F,/ G,/F,/=F,/E,/ | F,/^F,/G,/^G,/ A,/_B,/A,/=G,/ | !/!A,>A, z A, | _B,4 | %26
 .A,A,, A,2 | _B,2 C2 | A,/_B,/A,/^G,/ A,/B,/A,/G,/ | A,/_B,/A,/^G,/ A,/B,/A,/G,/ | %30
 A,/_B,/=B,/C/ ^C/=C/B,/_B,/ | A,/_B,/=B,/C/ ^C/=C/B,/_B,/ | !/!A,2 z D, | %33
 _E,/_E/!/!E,/E/ E,/E/!/!E,/E/ | .DD, D2 | _E2 D2 | D/_E/D/^C/ D/E/D/C/ | D/_E/D/^C/ D/E/D/C/ | %38
 D/_E/=E/F/ ^F/=F/E/_E/ | D/_E/=E/F/ ^F/=F/E/_E/ | D/^C/=C/B,/ _B,/_E/D/^C/ | %41
 D/^C/=C/B,/ _B,/=B,/C/^C/ | D/^C/=C/B,/ C/B,/_B,/A,/ | _B,/=B,/C/^C/ =C/^C/D/^D/ | %44
 E/^D/=D/^C/ D/C/=C/B,/ | C/B,/_B,/A,/ ^G,/G/^F/=F/ | E/F/E/^D/ E/F/E/D/ | E/F/E/^D/ E/F/E/D/ | %48
 E/F/E/^D/ z/ F,/E,/^D,/ | E,/F,/E,/^D,/ E,/F,/E,/D,/ | z/ ^D,/=D,/^C,/ D,/C,/=C,/B,,/ | %51
 C,/B,,/_B,,/A,,/ ^G,,/=G,,/^F,,/=F,,/ | z2 !/!.E.C | .A,.F, .A,.C | !tenuto!E2 !/!.E.C | %55
 .A,.F, .A,.C | E,,/F,,/^F,,/G,,/ ^G,,/A,,/^A,,/B,,/ | C,/^C,/D,/^D,/ E,/F,/^F,/G,/ | %58
 ^G,/A,/^A,/B,/ C/^C/D/^D/ | E/F/E/^D/ E2 | E/^D/=D/^C/ =C/^C/D/^D/ | E/^D/=D/^C/ =C/^C/D/^D/ | %62
 E/^D/=D/^C/ =C/F/E/^D/ | E/^D/=D/^C/ =C/^C/D/^D/ | E/^D/=D/^C/ D/C/=C/B,/ | C/^C/D/^D/ E/F/E/D/ | %66
 E/^D/=D/^C/ D/C/=C/B,/ | C/^C/D/^D/ E/^F/G/^G/ | A/^G/=G/^F/ =F/_B/A/^G/ | %69
 A/^G/=G/^F/ ^E/=F/G/^G/ | A/^G/=G/^F/ =F/_B/A/^G/ | A/^G/=G/^F/ =F/F/G/^G/ | %72
 A/^G/=G/^F/ G/F/=F/E/ | F/^F/G/^G/ A/_B/A/G/ | A/^G/=G/^F/ =F/^F/G/^G,/ | A,/B,/C/D/ E/F/E/^D/ | %76
 E/^D/=D/^C/ =C/F/E/^D/ | E/^D/=D/^C/ =C/^C/D/^D/ | E/^D/=D/^C/ =C/F/E/^D/ | %79
 E/^D/=D/^C/ =C/^C/D/^D/ | .E^G,/A,/ _B,/=B,/C/^C/ | D/^C/=C/B,/ C/B,/_B,/A,/ | %82
 ^G,/A,/^A,/B,/ C/^C/D/^D/ | E/F/E/^D/ E/F/E/D/ | .E^G,/A,/ _B,/=B,/C/^C/ | %85
 D/^C/=C/B,/ C/B,/_B,/A,/ | ^G,/A,/^A,/B,/ C/^C/D/^D/ | E/F/E/^D/ E/F/E/=D/ | %88
 .E^G,/A,/ _B,/^B,/C/^C/ | D/^C/=C/B,/ C/B,/_B,/A,/ | ^G,/A,/^A,/B,/ C/^C/D/^D/ | %91
 E/F/E/^D/ E/^F/G/^G/ | A/^G/=G/^F/ G/F/=F/E/ | F/E/^D/=D/ ^C/=C/B,/_B,/ | A/^G/=G/^F/ G/F/=F/E/ | %95
 F/E/^D/=D/ ^C/=C/B,/_B,/ | A,/_B,/A,/^G,/- !tenuto!G,2 | A,/A,/B,/A,/ C/A,/D/A,/ | %98
 E/F/E/^D/- !tenuto!D2 | E/E/^F/E/ G/E/^G/E/ | A,,/B,,/C,/D,/ E,/F,/^F,/G,/ | %101
 ^G,/A,/_B,/=B,/ C/^C/D/^D/ | E,/F,/^F,/G,/ ^G,/A,/_B,/=B,/ | C/^C/D/^D/ E/^F/G/^G/ | .A z z2 | %105
 A, z z2 | A,, z z2 |] %107
V:2
!p! ^a z z2 | ^a z z2 | [d^a]/d/d/d/ e/e/d/d/ | d/d/d/d/ f/e/d/A/ | [d^a]/d/d/d/ e/e/d/d/ | %5
 d/d/d/d/ f/e/d/A/ | AA AA | Ad ef | f3/2e3/2d- | d/ z/ d dd | f3/2e3/2d- | d/ z/ d d2 | %12
 z !/!A AA | [Af]3/2e3/2d- | d/ z/ A dA | !//!A2 dA | ^a2 ^g2 | ^g2 ^g2 | ^g2 ^g2 | ^g2 ^g2 | %20
 ^a2 ^g2 | ^g2 ^g2 | ^g2 ^g2 | ^g2 !//!^c2 | ^a2 z2 | ^a2 z2 | ^a2 z2 | ^a2 ^a2 | ^a2 z2 | ^a2 z2 | %30
 ^a2 z2 | ^a2 ^a2 | ^a2 z2 | ^a2 z2 | ^a2 z2 | ^a2 ^a2 | ^a2 ^g2 | ^g2 ^g2 | ^g2 ^g2 | ^g2 ^g2 | %40
 ^g2 ^g2 | ^g2 ^g2 | ^g2 ^g2 | ^g2 ^g2 | ^g2 ^g2 | ^g2 ^g2 | ^g2 ^g2 | ^g2 ^g2 | ^g2 ^g2 | %49
 ^g2 ^g2 | ^g2 ^g2 | ^g2 ^g2 | ^g2 ^g2 | ^g2 ^g2 | ^g2 ^g2 | ^g2 ^g2 | ^g2 ^g2 | ^g2 ^g2 | %58
 ^g2 ^g2 | ^g2 ^g2 | f3/2e3/2d- | d/ z/ d dd | f3/2e3/2d- | d/ z/ d d2 | f3/2e3/2d- | d/ z/ A dA | %66
 f3/2e3/2d- | d/ z/ A A2 | ^a2 ^e2 | ^e2 ^e2 | ^e2 ^e2 | ^e2 ^e2 | ^a2 ^e2 | ^e2 ^e2 | ^e2 ^e2 | %75
 ^e2 ^e2 | ^a2 ^g2 | ^g2 ^g2 | ^g2 ^g2 | ^g2 ^g2 | ^g2 ^g2 | ^g2 ^g2 | ^g2 ^g2 | ^g2 ^g2 | %84
 ^g2 ^g2 | ^g2 ^g2 | ^g2 ^g2 | ^g2 ^g2 | ^g2 ^g2 | ^g2 ^g2 | ^g2 ^g2 | ^g2 ^g2 | ^g2 ^g2 | %93
 ^g2 ^g2 | ^g2 ^g2 | ^g2 ^g2 | e/d/A/d/ z2 | ^g2 ^g2 | e/d/A/d/ z2 | ^g2 ^g2 | ^g2 ^g2 | ^g2 ^g2 | %102
 ^g2 ^g2 | ^g2 ^g2 | ^a z z2 | ^b z z2 | ^a z z2 |] %107
V:3
 x4 | x4 | F2 F2 | F2 F2 | F2 F2 | F2 F2 | F2 F2 | F2 F2 | F2 F2 | F2 F2 | F2 F2 | F2 F2 | F2 F2 | %13
 F2 F2 | F2 F2 | F2 F2 | FF ^c!/!F | FF ^cF | FF ^c!/!F | FF ^cF | FF ^c!/!F | FF ^cF | FF ^c!/!F | %23
 FF x2 | F2 F2 | F2 F2 | FF FF | FF FF | F2 F2 | F2 F2 | FF FF | FF FF | F2 F2 | F2 F2 | FF FF | %35
 FF !/!FF | FF ^c!/!F | FF ^cF | FF ^c!/!F | FF ^cF | FF ^c!/!F | FF ^cF | FF ^c!/!F | FF ^cF | %44
 FF ^c!/!F | FF ^cF | FF ^c!/!F | FF ^cF | FF ^c!/!F | FF ^cF | FF ^c!/!F | FF ^cF | FF f[Fe] | %53
 [Fd][FA] d[Fe] | [Ff]F f[Fe] | [Fd][FA] d[Fe] | FF ^c!/!F | FF ^cF | FF ^cF | FF ^c2 | F2 F2 | %61
 F2 F2 | F2 F2 | F2 F2 | F2 F2 | F2 F2 | F2 F2 | F2 F2 | F2 z2 | F2 z2 | F2 F2 | F2 z2 | F2 z2 | %73
 F2 z2 | F2 F2 | F2 F2 | FF ^c!/!F | FF ^c!/!F | FF ^c!/!F | FF ^c!/!F | FF ^c!/!F | FF ^c!/!F | %82
 FF ^c!/!F | FF ^c!/!F | FF ^c!/!F | FF ^c!/!F | FF ^c!/!F | FF ^c!/!F | FF ^c!/!F | FF ^c!/!F | %90
 FF ^c!/!F | FF ^c!/!F | FF ^c!/!F | FF ^c!/!F | FF ^c!/!F | FF ^c!/!F | x4 | FF ^c!/!F | x4 | %99
 FF ^c!/!F | FF ^c!/!F | FF ^c!/!F | FF ^c!/!F | FF ^c!/!F | x4 | x4 | x4 |] %107

